X: 145
M:C|
L:1/8
K:G
((3udef)|g>dB>d "4"e>cA>F|G>FG>B A>FD>C|\
g>dB>d "4"e>cA>F|G>FG>B A>FD>C|\
|:(uFG)|A>GA>B c>Bc>d|e>de>f g2d2|\
g>fe>d c>BA>G|F>d ^c>"4"e d>de>f|
g>dB>d e>cA>F|G>FG>B A>FD>C|\


